X: 1
T: Mrs Gordon of Rafford
T: the Misses Gordon of Rafford
C: Scott Cameron
R: reel
Z: 2009 John Chambers <jc:trillian.mit.edu>
S: image from George Meikle 2009-6-8
M: C|
L: 1/8
K: A
E2 \
| "A"A2cA E2AE | "D"F2D2 D2BA | "E7"G2E2 B2G2 | "A"ABcd e2E2 \
| "A"A2cA E2AE | "D"F2D2 "Bm"D2BA | "E7"GABG E2ed | "A"c2A2 A2 :|
|: cd \
| "A"e2cA a2ga | "D"f2d2 "Bm"d2fe | "B7"^d2B2 b2ba | "E7"g2e2 e2cd \
| "A"e2cA a2ga | "D"f2d2 "Bm"B2BA | "E7"GABG Ee^de | "A"c2A2 A2 :|
